svgs/microsoft_onenote.svg

<svg width="24" height="24" viewBox="0 0 24 24" fill="none" xmlns="http://www.w3.org/2000/svg">
<path d="M7.65611 3.10815C7.78844 3.05983 7.92949 3.04001 8.07001 3.05H17.07V3.06H21C21.1339 3.05994 21.2664 3.08677 21.3898 3.13889C21.5131 3.19101 21.6247 3.26736 21.7179 3.36342C21.8112 3.45948 21.8842 3.57329 21.9327 3.6981C21.9811 3.82291 22.004 3.95618 22 4.09V7.06H17.03V20.94H8.00001C7.7348 20.94 7.48044 20.8346 7.29291 20.6471C7.10537 20.4596 7.00001 20.2052 7.00001 19.94V18.14C7.00102 18.1184 7.0067 18.0972 7.01667 18.0779C7.02664 18.0587 7.04066 18.0418 7.05776 18.0285C7.07487 18.0152 7.09466 18.0058 7.11576 18.0009C7.13686 17.9959 7.15879 17.9956 7.18001 18H11.41C11.7445 18.0106 12.0745 17.9211 12.3578 17.743C12.5211 17.6402 12.6646 17.5108 12.7828 17.3608C12.9552 17.1422 13 16.8562 13 16.5777L12.9729 7.47484C12.971 7.19474 12.923 6.90815 12.7506 6.68734C12.6207 6.52089 12.4617 6.37785 12.2802 6.26572C11.9773 6.07869 11.6257 5.98618 11.27 6H7.18001C7.15307 6.0076 7.12453 6.0075 7.09763 5.99972C7.07074 5.99194 7.04656 5.97678 7.02782 5.95597C7.00909 5.93516 6.99656 5.90952 6.99165 5.88196C6.98673 5.85439 6.98963 5.826 7.00001 5.8V4.09C6.99402 3.94925 7.01784 3.80882 7.06991 3.67792C7.12197 3.54701 7.20111 3.42859 7.30213 3.3304C7.40315 3.23221 7.52378 3.15647 7.65611 3.10815Z" fill="#FFF1C0"/>
<path d="M21.7071 20.5571C21.5196 20.7446 21.2652 20.85 21 20.85H18V17H22V19.85C22 20.1152 21.8947 20.3696 21.7071 20.5571Z" fill="#FFF1C0"/>
<path fill-rule="evenodd" clip-rule="evenodd" d="M2.26158 7.24757C2.42176 7.09111 2.6361 7.00244 2.86 7H11.47C11.6241 6.99981 11.7723 7.05889 11.884 7.165C11.9957 7.27111 12.0623 7.41613 12.07 7.57V16.44C12.07 16.5991 12.0068 16.7517 11.8943 16.8643C11.7817 16.9768 11.6291 17.04 11.47 17.04H2.86C2.63191 17.04 2.41317 16.9494 2.25189 16.7881C2.09061 16.6268 2 16.4081 2 16.18V7.84C2.00771 7.61622 2.1014 7.40403 2.26158 7.24757ZM8.24135 12.7797L8.22287 9.10057H9.40021V14.8094H8.03984L5.81869 11.1059C5.82143 11.174 5.82378 11.2429 5.82573 11.3126C5.83285 11.4826 5.83878 11.655 5.84352 11.8297L5.84367 11.8352L5.8436 14.8094H4.6698V9.10057H6.02275L8.24135 12.7797Z" fill="#FFF1C0"/>
<path d="M22 8.06V11.5H18V8.06H22Z" fill="#FFF1C0"/>
<path d="M22 16V12.5H18V16H22Z" fill="#FFF1C0"/>
</svg>

<svg xmlns="http://www.w3.org/2000/svg" width="24" height="24" fill="none" viewBox="0 0 24 24"><path fill="#FFF1C0" d="M7.656 3.108a1 1 0 0 1 .414-.058h9v.01H21a1 1 0 0 1 1 1.03v2.97h-4.97v13.88H8a1 1 0 0 1-1-1v-1.8a.15.15 0 0 1 .18-.14h4.23a1.68 1.68 0 0 0 1.373-.64c.172-.218.217-.504.217-.782l-.027-9.103c-.002-.28-.05-.567-.222-.788A1.79 1.79 0 0 0 11.27 6H7.18A.15.15 0 0 1 7 5.8V4.09a1 1 0 0 1 .656-.982"/><path fill="#FFF1C0" d="M21.707 20.557a1 1 0 0 1-.707.293h-3V17h4v2.85a1 1 0 0 1-.293.707"/><path fill="#FFF1C0" fill-rule="evenodd" d="M2.262 7.248A.87.87 0 0 1 2.86 7h8.61a.6.6 0 0 1 .6.57v8.87a.6.6 0 0 1-.6.6H2.86a.86.86 0 0 1-.86-.86V7.84a.87.87 0 0 1 .262-.592m5.98 5.532-.02-3.68H9.4v5.71H8.04l-2.221-3.704.007.207c.007.17.013.342.018.517v2.979H4.67V9.101h1.353L8.24 12.78" clip-rule="evenodd"/><path fill="#FFF1C0" d="M22 8.06v3.44h-4V8.06zM22 16v-3.5h-4V16z"/></svg>
